public/imgs/icons/picture_outline_28.svg

<?xml version="1.0" encoding="UTF-8"?>
<svg width="28px" height="28px" viewBox="0 0 28 28" version="1.1" xmlns="http://www.w3.org/2000/svg" xmlns:xlink="http://www.w3.org/1999/xlink">
    <!-- Generator: Sketch 63.1 (92452) - https://sketch.com -->
    <title>picture_outline_28</title>
    <desc>Created with Sketch.</desc>
    <g id="Page-1" stroke="none" stroke-width="1" fill="none" fill-rule="evenodd">
        <g id="picture_outline_28">
            <rect x="0" y="0" width="28" height="28"></rect>
            <path d="M16.3083444,3.00000006 C18.897759,3.00000006 20.1262468,3.23723201 21.4021359,3.91958497 C22.5541822,4.53570604 23.464294,5.44581782 24.080415,6.59786406 C24.762768,7.87375315 25.0000001,9.10224102 25.0000001,11.6916556 L25.0000001,16.3083444 C25.0000001,18.897759 24.762768,20.1262468 24.080415,21.4021359 C23.464294,22.5541822 22.5541822,23.464294 21.4021359,24.080415 C20.1262468,24.762768 18.897759,25.0000001 16.3083444,25.0000001 L11.6916556,25.0000001 C9.10224102,25.0000001 7.87375315,24.762768 6.59786406,24.080415 C5.44581782,23.464294 4.53570604,22.5541822 3.91958497,21.4021359 C3.23723201,20.1262468 3.00000006,18.897759 3.00000006,16.3083444 L3.00000006,11.6916556 C3.00000006,9.10224102 3.23723201,7.87375315 3.91958497,6.59786406 C4.53570604,5.44581782 5.44581782,4.53570604 6.59786406,3.91958497 C7.87375315,3.23723201 9.10224102,3.00000006 11.6916556,3.00000006 L16.3083444,3.00000006 Z M17.9791258,15.4418673 L13.7770534,20.6294347 C13.4260014,21.0628175 12.7882725,21.1252687 12.3598156,20.7682213 L12.3598156,20.7682213 L10.0613665,18.852847 L6.96323478,21.9515556 C7.14410851,22.0857191 7.33680515,22.2075511 7.54106172,22.3167887 C8.48759763,22.8230017 9.40417042,22.9999999 11.6916556,22.9999999 L16.3083444,22.9999999 C18.5958296,22.9999999 19.5124024,22.8230017 20.4589383,22.3167887 C21.2624476,21.8870673 21.8870673,21.2624476 22.3167887,20.4589383 C22.4636967,20.1842443 22.5828776,19.9120738 22.678052,19.6081868 L17.9791258,15.4418673 Z M16.3083444,4.99999994 L11.6916556,4.99999994 C9.40417042,4.99999994 8.48759763,5.17699831 7.54106172,5.68321126 C6.73755241,6.11293274 6.11293274,6.73755241 5.68321126,7.54106172 C5.17699831,8.48759763 4.99999994,9.40417042 4.99999994,11.6916556 L4.99999994,16.3083444 C4.99999994,18.5652008 5.17229013,19.4876113 5.66305383,20.4209295 L9.29289322,16.7928932 C9.65861111,16.4271753 10.2428579,16.4006733 10.6401844,16.7317787 L10.6401844,16.7317787 L12.8611999,18.582625 L17.0831118,13.3705653 C17.4417309,12.9278408 18.0972217,12.8737598 18.5235512,13.2517226 L18.5235512,13.2517226 L22.9886829,17.2101586 C22.9963762,16.934885 22.9999999,16.6356482 22.9999999,16.3083444 L22.9999999,11.6916556 C22.9999999,9.40417042 22.8230017,8.48759763 22.3167887,7.54106172 C21.8870673,6.73755241 21.2624476,6.11293274 20.4589383,5.68321126 C19.5124024,5.17699831 18.5958296,4.99999994 16.3083444,4.99999994 Z M10.5,9 C11.3284271,9 12,9.67157288 12,10.5 C12,11.3284271 11.3284271,12 10.5,12 C9.67157288,12 9,11.3284271 9,10.5 C9,9.67157288 9.67157288,9 10.5,9 Z" id="↳-Icon-Color" fill="currentColor" fill-rule="nonzero"></path>
        </g>
    </g>
</svg>

<svg xmlns="http://www.w3.org/2000/svg" width="28" height="28" xmlns:v="https://vecta.io/nano"><path d="M16.308 3c2.589 0 3.818.237 5.094.92a6.45 6.45 0 0 1 2.678 2.678c.682 1.276.92 2.504.92 5.094v4.617c0 2.589-.237 3.818-.92 5.094a6.45 6.45 0 0 1-2.678 2.678c-1.276.682-2.504.92-5.094.92h-4.617c-2.589 0-3.818-.237-5.094-.92a6.45 6.45 0 0 1-2.678-2.678C3.237 20.126 3 18.898 3 16.308v-4.617c0-2.589.237-3.818.92-5.094A6.45 6.45 0 0 1 6.598 3.92C7.874 3.237 9.102 3 11.692 3h4.617zm1.671 12.442l-4.202 5.188a1 1 0 0 1-1.417.139h0l-2.298-1.915-3.098 3.099c.181.134.374.256.578.365.947.506 1.863.683 4.151.683h4.617c2.287 0 3.204-.177 4.151-.683a4.45 4.45 0 0 0 1.858-1.858c.147-.275.266-.547.361-.851l-4.699-4.166zM16.308 5h-4.617c-2.287 0-3.204.177-4.151.683a4.45 4.45 0 0 0-1.858 1.858C5.177 8.488 5 9.404 5 11.692v4.617c0 2.257.172 3.179.663 4.113l3.63-3.628a1 1 0 0 1 1.347-.061h0l2.221 1.851 4.222-5.212a1 1 0 0 1 1.44-.119h0l4.465 3.958.011-.902v-4.617c0-2.287-.177-3.204-.683-4.151a4.45 4.45 0 0 0-1.858-1.858C19.512 5.177 18.596 5 16.308 5zM10.5 9a1.5 1.5 0 1 1 0 3 1.5 1.5 0 1 1 0-3z" fill="#000" fill-rule="nonzero"/></svg>
